flaticon/seo-and-analytics/pie-chart-4.svg

<svg xmlns="http://www.w3.org/2000/svg" width="32" height="32" viewBox="0 0 24 24">
    <path d="M13.601562 2C13.839844 2 14 1.839844 14 1.601562 14 1.359375 13.839844 1.199219 13.601562 1.199219 13.359375 1.199219 13.199219 1.359375 13.199219 1.601562 13.199219 1.839844 13.359375 2 13.601562 2zM13.601562 4.398438C13.839844 4.398438 14 4.238281 14 4 14 3.761719 13.839844 3.601562 13.601562 3.601562 13.359375 3.601562 13.199219 3.761719 13.199219 4 13.199219 4.238281 13.359375 4.398438 13.601562 4.398438zM16 3.601562C15.761719 3.601562 15.601562 3.761719 15.601562 4 15.601562 4.238281 15.761719 4.398438 16 4.398438 16.238281 4.398438 16.398438 4.238281 16.398438 4 16.398438 3.761719 16.238281 3.601562 16 3.601562zM14.800781 2.398438C14.558594 2.398438 14.398438 2.558594 14.398438 2.800781 14.398438 3.039062 14.558594 3.199219 14.800781 3.199219 15.039062 3.199219 15.199219 3.039062 15.199219 2.800781 15.199219 2.558594 15.039062 2.398438 14.800781 2.398438zM13.601562 6.800781C13.839844 6.800781 14 6.640625 14 6.398438 14 6.160156 13.839844 6 13.601562 6 13.359375 6 13.199219 6.160156 13.199219 6.398438 13.199219 6.640625 13.359375 6.800781 13.601562 6.800781zM16 6C15.761719 6 15.601562 6.160156 15.601562 6.398438 15.601562 6.640625 15.761719 6.800781 16 6.800781 16.238281 6.800781 16.398438 6.640625 16.398438 6.398438 16.398438 6.160156 16.238281 6 16 6zM14.800781 4.800781C14.558594 4.800781 14.398438 4.960938 14.398438 5.199219 14.398438 5.441406 14.558594 5.601562 14.800781 5.601562 15.039062 5.601562 15.199219 5.441406 15.199219 5.199219 15.199219 4.960938 15.039062 4.800781 14.800781 4.800781zM18.398438 3.601562C18.160156 3.601562 18 3.761719 18 4 18 4.238281 18.160156 4.398438 18.398438 4.398438 18.640625 4.398438 18.800781 4.238281 18.800781 4 18.800781 3.761719 18.640625 3.601562 18.398438 3.601562zM18.398438 6C18.160156 6 18 6.160156 18 6.398438 18 6.640625 18.160156 6.800781 18.398438 6.800781 18.640625 6.800781 18.800781 6.640625 18.800781 6.398438 18.800781 6.160156 18.640625 6 18.398438 6zM17.199219 4.800781C16.960938 4.800781 16.800781 4.960938 16.800781 5.199219 16.800781 5.441406 16.960938 5.601562 17.199219 5.601562 17.441406 5.601562 17.601562 5.441406 17.601562 5.199219 17.601562 4.960938 17.441406 4.800781 17.199219 4.800781zM17.199219 7.199219C16.960938 7.199219 16.800781 7.359375 16.800781 7.601562 16.800781 7.839844 16.960938 8 17.199219 8 17.441406 8 17.601562 7.839844 17.601562 7.601562 17.601562 7.359375 17.441406 7.199219 17.199219 7.199219zM17.199219 9.601562C16.960938 9.601562 16.800781 9.761719 16.800781 10 16.800781 10.238281 16.960938 10.398438 17.199219 10.398438 17.441406 10.398438 17.601562 10.238281 17.601562 10 17.601562 9.761719 17.441406 9.601562 17.199219 9.601562zM16 8.398438C15.761719 8.398438 15.601562 8.558594 15.601562 8.800781 15.601562 9.039062 15.761719 9.199219 16 9.199219 16.238281 9.199219 16.398438 9.039062 16.398438 8.800781 16.398438 8.558594 16.238281 8.398438 16 8.398438zM14.800781 7.199219C14.558594 7.199219 14.398438 7.359375 14.398438 7.601562 14.398438 7.839844 14.558594 8 14.800781 8 15.039062 8 15.199219 7.839844 15.199219 7.601562 15.199219 7.359375 15.039062 7.199219 14.800781 7.199219zM13.601562 9.199219C13.839844 9.199219 14 9.039062 14 8.800781 14 8.558594 13.839844 8.398438 13.601562 8.398438 13.359375 8.398438 13.199219 8.558594 13.199219 8.800781 13.199219 9.039062 13.359375 9.199219 13.601562 9.199219zM19.601562 7.199219C19.359375 7.199219 19.199219 7.359375 19.199219 7.601562 19.199219 7.839844 19.359375 8 19.601562 8 19.839844 8 20 7.839844 20 7.601562 20 7.359375 19.839844 7.199219 19.601562 7.199219zM19.601562 9.601562C19.359375 9.601562 19.199219 9.761719 19.199219 10 19.199219 10.238281 19.359375 10.398438 19.601562 10.398438 19.839844 10.398438 20 10.238281 20 10 20 9.761719 19.839844 9.601562 19.601562 9.601562zM18.398438 8.398438C18.160156 8.398438 18 8.558594 18 8.800781 18 9.039062 18.160156 9.199219 18.398438 9.199219 18.640625 9.199219 18.800781 9.039062 18.800781 8.800781 18.800781 8.558594 18.640625 8.398438 18.398438 8.398438zM20.800781 8.398438C20.558594 8.398438 20.398438 8.558594 20.398438 8.800781 20.398438 9.039062 20.558594 9.199219 20.800781 9.199219 21.039062 9.199219 21.199219 9.039062 21.199219 8.800781 21.199219 8.558594 21.039062 8.398438 20.800781 8.398438zM19.601562 4.800781C19.359375 4.800781 19.199219 4.960938 19.199219 5.199219 19.199219 5.441406 19.359375 5.601562 19.601562 5.601562 19.839844 5.601562 20 5.441406 20 5.199219 20 4.960938 19.839844 4.800781 19.601562 4.800781zM20.800781 6C20.558594 6 20.398438 6.160156 20.398438 6.398438 20.398438 6.640625 20.558594 6.800781 20.800781 6.800781 21.039062 6.800781 21.199219 6.640625 21.199219 6.398438 21.199219 6.160156 21.039062 6 20.800781 6zM22 9.601562C21.761719 9.601562 21.601562 9.761719 21.601562 10 21.601562 10.238281 21.761719 10.398438 22 10.398438 22.238281 10.398438 22.398438 10.238281 22.398438 10 22.398438 9.761719 22.238281 9.601562 22 9.601562zM14.800781 9.601562C14.558594 9.601562 14.398438 9.761719 14.398438 10 14.398438 10.238281 14.558594 10.398438 14.800781 10.398438 15.039062 10.398438 15.199219 10.238281 15.199219 10 15.199219 9.761719 15.039062 9.601562 14.800781 9.601562zM17.199219 2.398438C16.960938 2.398438 16.800781 2.558594 16.800781 2.800781 16.800781 3.039062 16.960938 3.199219 17.199219 3.199219 17.441406 3.199219 17.601562 3.039062 17.601562 2.800781 17.601562 2.558594 17.441406 2.398438 17.199219 2.398438zM11.199219 12.398438L.398438 12.398438C.28125 12.398438.199219 12.441406.121094 12.519531.0390625 12.640625 0 12.71875 0 12.839844.109375 14.449219.539062 15.976562 1.226562 17.351562 1.234375 17.382812 1.25 17.414062 1.269531 17.441406 3.140625 21.113281 6.855469 23.710938 11.199219 24 11.320312 24 11.398438 23.960938 11.480469 23.878906 11.558594 23.800781 11.601562 23.71875 11.601562 23.601562L11.601562 12.800781C11.601562 12.558594 11.441406 12.398438 11.199219 12.398438zM3.082031 18.8125C2.789062 18.429688 2.519531 18.023438 2.273438 17.601562L10.800781 17.601562 10.800781 18.800781 3.199219 18.800781C3.160156 18.800781 3.121094 18.804688 3.082031 18.8125zM1.367188 15.601562L10.800781 15.601562 10.800781 16.800781 1.855469 16.800781C1.671875 16.410156 1.507812 16.011719 1.367188 15.601562zM10.800781 13.199219L10.800781 14.800781 1.199219 14.800781C1.175781 14.800781 1.152344 14.800781 1.132812 14.804688.996094 14.285156.898438 13.746094.839844 13.199219zM3.742188 19.601562L10.800781 19.601562 10.800781 20.800781 5.199219 20.800781C5.148438 20.800781 5.105469 20.808594 5.0625 20.820312 4.589844 20.449219 4.148438 20.039062 3.742188 19.601562zM6.1875 21.601562L10.800781 21.601562 10.800781 23.160156C9.125 22.980469 7.558594 22.433594 6.1875 21.601562zM11.160156 0C5.199219.398438.398438 5.199219 0 11.160156 0 11.28125.0390625 11.398438.121094 11.480469.199219 11.558594.28125 11.601562.398438 11.601562L11.199219 11.601562C11.441406 11.601562 11.601562 11.441406 11.601562 11.199219L11.601562.398438C11.601562.28125 11.558594.199219 11.480469.121094 11.359375.0390625 11.28125 0 11.160156 0zM10.800781 10.800781L.839844 10.800781C1.398438 5.558594 5.558594 1.398438 10.800781.839844zM23.601562 12.398438L12.800781 12.398438C12.558594 12.398438 12.398438 12.558594 12.398438 12.800781L12.398438 23.601562C12.398438 23.71875 12.441406 23.800781 12.519531 23.878906 12.601562 23.960938 12.679688 24 12.800781 24 18.800781 23.601562 23.601562 18.800781 24 12.839844 24 12.71875 23.960938 12.601562 23.878906 12.519531 23.800781 12.441406 23.71875 12.398438 23.601562 12.398438zM13.199219 23.160156L13.199219 13.199219 23.160156 13.199219C22.601562 18.441406 18.441406 22.601562 13.199219 23.160156zM13.199219 23.160156"/>
    <path d="M 12.800781 11.601562 L 23.601562 11.601562 C 23.71875 11.601562 23.800781 11.558594 23.878906 11.480469 C 23.960938 11.359375 24 11.28125 24 11.160156 C 23.601562 5.199219 18.800781 0.398438 12.839844 0 C 12.71875 0 12.601562 0.0390625 12.519531 0.121094 C 12.441406 0.199219 12.398438 0.28125 12.398438 0.398438 L 12.398438 11.199219 C 12.398438 11.441406 12.558594 11.601562 12.800781 11.601562 Z M 13.199219 8.800781 L 13.199219 0.839844 C 14.050781 0.929688 14.871094 1.117188 15.652344 1.386719 C 15.617188 1.445312 15.601562 1.519531 15.601562 1.601562 C 15.601562 1.839844 15.761719 2 16 2 C 16.214844 2 16.367188 1.871094 16.394531 1.671875 C 18.929688 2.753906 20.988281 4.738281 22.160156 7.226562 C 22.109375 7.210938 22.058594 7.199219 22 7.199219 C 21.761719 7.199219 21.601562 7.359375 21.601562 7.601562 C 21.601562 7.839844 21.761719 8 22 8 C 22.191406 8 22.332031 7.898438 22.382812 7.730469 C 22.777344 8.695312 23.046875 9.722656 23.160156 10.800781 L 13.199219 10.800781 Z M 13.199219 8.800781"/>
</svg>

<svg xmlns="http://www.w3.org/2000/svg" width="32" height="32" viewBox="0 0 24 24">
    <path d="M13.602 2c.238 0 .398-.16.398-.398 0-.243-.16-.403-.398-.403-.243 0-.403.16-.403.403 0 .238.16.398.403.398zm0 0M13.602 4.398c.238 0 .398-.16.398-.398 0-.238-.16-.398-.398-.398-.243 0-.403.16-.403.398 0 .238.16.398.403.398zm0 0M16 3.602c-.238 0-.398.16-.398.398 0 .238.16.398.398.398.238 0 .398-.16.398-.398 0-.238-.16-.398-.398-.398zm0 0M14.8 2.398c-.241 0-.402.16-.402.403 0 .238.16.398.403.398.238 0 .398-.16.398-.398 0-.242-.16-.403-.398-.403zm0 0M13.602 6.8c.238 0 .398-.16.398-.402C14 6.16 13.84 6 13.602 6c-.243 0-.403.16-.403.398 0 .243.16.403.403.403zm0 0M16 6c-.238 0-.398.16-.398.398 0 .243.16.403.398.403.238 0 .398-.16.398-.403 0-.238-.16-.398-.398-.398zm0 0M14.8 4.8c-.241 0-.402.16-.402.4 0 .241.16.402.403.402.238 0 .398-.16.398-.403 0-.238-.16-.398-.398-.398zm0 0M18.398 3.602c-.238 0-.398.16-.398.398 0 .238.16.398.398.398.243 0 .403-.16.403-.398 0-.238-.16-.398-.403-.398zm0 0M18.398 6c-.238 0-.398.16-.398.398 0 .243.16.403.398.403.243 0 .403-.16.403-.403 0-.238-.16-.398-.403-.398zm0 0M17.2 4.8c-.24 0-.4.16-.4.4 0 .241.16.402.4.402.241 0 .402-.16.402-.403 0-.238-.16-.398-.403-.398zm0 0M17.2 7.2c-.24 0-.4.16-.4.402 0 .238.16.398.4.398.241 0 .402-.16.402-.398 0-.243-.16-.403-.403-.403zm0 0M17.2 9.602c-.24 0-.4.16-.4.398 0 .238.16.398.4.398.241 0 .402-.16.402-.398 0-.238-.16-.398-.403-.398zm0 0M16 8.398c-.238 0-.398.16-.398.403 0 .238.16.398.398.398.238 0 .398-.16.398-.398 0-.242-.16-.403-.398-.403zm0 0M14.8 7.2c-.241 0-.402.16-.402.402 0 .238.16.398.403.398.238 0 .398-.16.398-.398 0-.243-.16-.403-.398-.403zm0 0M13.602 9.2c.238 0 .398-.16.398-.4 0-.241-.16-.402-.398-.402-.243 0-.403.16-.403.403 0 .238.16.398.403.398zm0 0M19.602 7.2c-.243 0-.403.16-.403.402 0 .238.16.398.403.398.238 0 .398-.16.398-.398 0-.243-.16-.403-.398-.403zm0 0M19.602 9.602c-.243 0-.403.16-.403.398 0 .238.16.398.403.398.238 0 .398-.16.398-.398 0-.238-.16-.398-.398-.398zm0 0M18.398 8.398c-.238 0-.398.16-.398.403 0 .238.16.398.398.398.243 0 .403-.16.403-.398 0-.242-.16-.403-.403-.403zm0 0M20.8 8.398c-.241 0-.402.16-.402.403 0 .238.16.398.403.398.238 0 .398-.16.398-.398 0-.242-.16-.403-.398-.403zm0 0M19.602 4.8c-.243 0-.403.16-.403.4 0 .241.16.402.403.402.238 0 .398-.16.398-.403 0-.238-.16-.398-.398-.398zm0 0M20.8 6c-.241 0-.402.16-.402.398 0 .243.16.403.403.403.238 0 .398-.16.398-.403 0-.238-.16-.398-.398-.398zm0 0M22 9.602c-.238 0-.398.16-.398.398 0 .238.16.398.398.398.238 0 .398-.16.398-.398 0-.238-.16-.398-.398-.398zm0 0M14.8 9.602c-.241 0-.402.16-.402.398 0 .238.16.398.403.398.238 0 .398-.16.398-.398 0-.238-.16-.398-.398-.398zm0 0M17.2 2.398c-.24 0-.4.16-.4.403 0 .238.16.398.4.398.241 0 .402-.16.402-.398 0-.242-.16-.403-.403-.403zm0 0M11.2 12.398H.397c-.117 0-.199.043-.277.122-.082.12-.121.199-.121.32.11 1.61.54 3.137 1.227 4.512a.272.272 0 0 0 .043.09C3.14 21.112 6.855 23.71 11.2 24c.12 0 .198-.04.28-.121a.366.366 0 0 0 .122-.277V12.8c0-.242-.16-.403-.403-.403zm-8.118 6.415c-.293-.383-.562-.79-.809-1.211h8.528V18.8H3.199a.596.596 0 0 0-.117.012zm-1.715-3.211h9.434V16.8H1.855c-.183-.39-.347-.79-.488-1.2zm9.434-2.403v1.602H1.199c-.023 0-.047 0-.066.004a10.873 10.873 0 0 1-.293-1.606zm-7.059 6.403h7.059V20.8H5.199a.502.502 0 0 0-.136.02 11.486 11.486 0 0 1-1.32-1.22zm2.446 2H10.8v1.558a11.178 11.178 0 0 1-4.614-1.558zm0 0M11.16 0C5.2.398.398 5.2 0 11.16c0 .121.04.238.121.32.078.079.16.122.277.122H11.2c.242 0 .403-.16.403-.403V.4c0-.118-.043-.2-.122-.278C11.36.04 11.281 0 11.16 0zm-.36 10.8H.84A11.228 11.228 0 0 1 10.8.84zm0 0M23.602 12.398H12.8c-.242 0-.403.16-.403.403v10.8c0 .118.043.2.122.278.082.082.16.121.28.121 6-.398 10.802-5.2 11.2-11.16a.449.449 0 0 0-.121-.32.366.366 0 0 0-.277-.122zM13.199 23.16V13.2h9.961a11.228 11.228 0 0 1-9.96 9.96zm0 0"/>
    <path d="M12.8 11.602h10.802c.117 0 .199-.043.277-.122.082-.12.121-.199.121-.32C23.602 5.2 18.8.398 12.84 0a.449.449 0 0 0-.32.121.366.366 0 0 0-.122.277V11.2c0 .242.16.403.403.403zm.4-2.801V.84c.85.09 1.671.277 2.452.547a.417.417 0 0 0-.05.215c0 .238.16.398.398.398.215 0 .367-.129.395-.328a11.276 11.276 0 0 1 5.765 5.555.53.53 0 0 0-.16-.028c-.238 0-.398.16-.398.403 0 .238.16.398.398.398.191 0 .332-.102.383-.27.394.965.664 1.993.777 3.07H13.2zm0 0"/>
</svg>
